X: 100307
T: "THE CROWN" HORNPIPE
C: By W.C. Paton, Edinburgh
R: reel
B: K\"ohler's Violin Repository, v.3, 1885 p.220 #1
F: http://www.archive.org/details/klersviolinrepos03rugg
Z: 2012 John Chambers <jc:trillian.mit.edu>
N: The {^a}b2 in bar 10 is a bit odd.
M: C|
L: 1/8
K: Bb
uF2 |\
(3BBB (Bd) fdbf | (3BBB (dB) AcfA | Bbag f=e_ec | Bgfe dcBA | (3BBB (Bd) fdbf |
(3BBB (dB) Acf=e |[1 f=e^cA agf=e | (fg)=ef d2 :|[2 f=e_ec AFEA | B2{^a}b2 B2 ||
|: uB2 |\
dD^FA dDGB | (de)dc BAG2 | ABcd efga | bagf edc^c | dD^FA dDGB |
(de)dc BAG2 |[1 (3D^FA (3dcB (3Agf (3edc | B2{^a}b2 B2 :|[2 (AB)cd (ec)Ac | B2 (."^>"A2 "^>".G2) |]

%%sep 2 1 500

